X:1441
T:The Old Schoolmaster
M:C|
L:1/8
N:"collected by McFadden"
B:O'Neill's 1441
Z:"Transcribed by Bob Safranek, rjs@gsp.org"
Z:Ornaments (~) in bars 5 and 13 are turns.
Z:Ornament (~) in bar 11 is a mordent.
K:C
G2 GA cded|cA 3AAA cGAG|EGGA      cdea|gece Td2 cA|
~G3   A  cded|cA 3AAA AcAG|EGGA      cdea|gece  d2  "    Fine"c2||
g3   d  efgd|eabag    eaag|egagf ~gfgb|afge  d2  cd|
egagf ~g3 d|eabag    eaaa|gede      cdea|gece Td2 c"D.C."A|]
